img/icon-calender.svg

<svg width="87" height="63" fill="none" xmlns="http://www.w3.org/2000/svg"><ellipse cx="55" cy="31.5" rx="32" ry="31.5" fill="#1D7FA9" fill-opacity=".21"/><path d="M55.125 52.5V15.75a5.255 5.255 0 0 0-5.25-5.25h-5.25V5.25h-5.25v5.25h-15.75V5.25h-5.25v5.25h-5.25a5.255 5.255 0 0 0-5.25 5.25V52.5a5.255 5.255 0 0 0 5.25 5.25h36.75a5.255 5.255 0 0 0 5.25-5.25Zm-31.5-5.25h-5.25V42h5.25v5.25Zm0-10.5h-5.25V31.5h5.25v5.25Zm10.5 10.5h-5.25V42h5.25v5.25Zm0-10.5h-5.25V31.5h5.25v5.25Zm10.5 10.5h-5.25V42h5.25v5.25Zm0-10.5h-5.25V31.5h5.25v5.25Zm5.25-13.125h-36.75v-5.25h36.75v5.25Z" fill="#1D7FA9" fill-opacity=".81"/></svg>

<svg width="87" height="63" viewBox="0 0 87 63" fill="none" xmlns="http://www.w3.org/2000/svg">
<ellipse cx="55" cy="31.5" rx="32" ry="31.5" fill="#1D7FA9" fill-opacity="0.21"/>
<path d="M55.125 52.5V15.75C55.125 12.8546 52.7704 10.5 49.875 10.5H44.625V5.25H39.375V10.5H23.625V5.25H18.375V10.5H13.125C10.2296 10.5 7.875 12.8546 7.875 15.75V52.5C7.875 55.3954 10.2296 57.75 13.125 57.75H49.875C52.7704 57.75 55.125 55.3954 55.125 52.5ZM23.625 47.25H18.375V42H23.625V47.25ZM23.625 36.75H18.375V31.5H23.625V36.75ZM34.125 47.25H28.875V42H34.125V47.25ZM34.125 36.75H28.875V31.5H34.125V36.75ZM44.625 47.25H39.375V42H44.625V47.25ZM44.625 36.75H39.375V31.5H44.625V36.75ZM49.875 23.625H13.125V18.375H49.875V23.625Z" fill="#1D7FA9" fill-opacity="0.81"/>
</svg>
